X:15
T: Leinster Buttermilk
S: B.Conway
Z: B.Black
R: reel
M: 4/4
L: 1/8
K: D
B2 AB dBAd |BFAF DEFA|B2 AB dBAd|abag fddc |
B2 AB dBAd |BFAF DEFA|B2 AB dBAd|abag fddf ||
a2 fd ad (3dcd | adfd Be (3efe | a2 fd adfd |\
abag fddf |
a2 fd ad (3dcd | adfd Be (3efe | abaf efdB |\
ABde fedc ||
